X:11
T:Franeenke
H:Elsu nolka
S:Tored.er
N:Pl? ela ? dervud eave
Z:Ta4)scrr de tumbse
H:Fraingl ffath Cholenall dearan 1
d:Mickandse Pora #2
P:Po, The
R:Farne (39
(1"B2G.G|"G"F2GF2|"C"C"g "c3"c2 |
(ecd^cd) | fg[g (ef df | d2f2 e4 a>ff||
|:b/d/d/d/|ee|c/B/F/B/ BB|:E/ A/d/d/ g/e/c/B/)G2|d
V:4
L:1/8
Q:1/4=150
K:Db] (3GBA |
g2af baag afeg| fag edf | B2dc d2B|BcA BBA|1 F4ED|~G3B GABB|decdBc|eAFd dcdd|2cdB ~g3|bde fd2||
<end>
<start>
